!!!!SEGMENT: pl-kk--kk-i-388--006_anonim--credo-no-6.krn
!!!cenid: 18xx:1403
!!!COM: Anonim
!!!COM-rismid: pe30004985
!!!CDT:
!!!CNT:
!!!OTL: Credo No 6
!!!PDT:
!!!AGN: Sacred; Mass section
!!!SMS-siglum: PL-Kk
!!!SMS-shelfmark: Kk.I.388
!!!SMS-shelfwork: 006 W
!!!SMS-variant:
!!!SMS-altvar:
!!!NIFC-rismid: 1001140863
!!!URL-scan: http://repozytorium.nifc.pl/skany/pl-kk-nut--i-388
!!!ONB-nifc:
**kern	**text	**kern	**text	**kern	**text	**kern	**text
*part4	*part4	*part3	*part3	*part2	*part2	*part1	*part1
*staff4	*staff4	*staff3	*staff3	*staff2	*staff2	*staff1	*staff1
*Ibass	*	*Itenor	*	*Ialto	*	*Isoprn	*
*I"Basso.	*	*I"Tenore.	*	*I"Alto.	*	*I"Soprano.	*
*I'B	*	*I'T	*	*I'A	*	*I'S	*
*clefF4	*	*clefC4	*	*clefC3	*	*clefC1	*
*k[]	*	*k[]	*	*k[]	*	*k[]	*
*C:	*	*C:	*	*C:	*	*C:	*
*M3/4	*	*M3/4	*	*M3/4	*	*M3/4	*
=1	=1	=1	=1	=1	=1	=1	=1
*2\right	*	*2\right	*	*2\right	*	*2\right	*
!LO:TX:t=P:problem:all\right:global	!	!LO:TX:t=P:problem:all\right:global	!	!LO:TX:t=P:problem:all\right:global	!	!LO:TX:t=P:problem:all\right:global	!
!LO:TX:B:a:i:t=No 6sty Credo.	!	!LO:TX:B:a:i:t=No 6. Credo.	!	!LO:TX:B:i:a:t=No 6. Credo.	!	!LO:TX:B:i:a:t=No 6sty Credo.	!
!LO:TX:t=P:problem: nazwa głosu na górze karty	!	!LO:TX:t=P:problem: nazwa głosu na górze karty	!	!LO:TX:t=P:problem: nazwa głosu na górze karty	!	!LO:TX:t=P:problem: nazwa głosu na górze karty	!
!LO:TX:a:t=P:problem: napis "No 6sty Credo." przed kluczem	!	!LO:TX:a:t=P:problem: napis "No 6. Credo." przed kluczem	!	!LO:TX:a:t=P:problem: napis "No 6. Credo." przed kluczem	!	!LO:TX:a:t=P:problem: napis "No 6sty Credo." przed kluczem	!
4C/	Cre-	4G/	Cre-	4e\	Cre-	4g\	Cre-
4C/	-do	4G/	-do	4e\	-do	4cc\	-do
4D/	in	4G/	in	4f\	in	4b\	in
=2	=2	=2	=2	=2	=2	=2	=2
2E\	u-	4G/	u-	2g\	u-	2cc\	u-
.	.	4c\	.	.	.	.	.
4F\	-num	4c\	-num	4a\	-num	4dd\	-num
=3	=3	=3	=3	=3	=3	=3	=3
2.G\	De-	2c\	De-	2.g\	De-	2.dd\	De-
.	.	4B\	.	.	.	.	.
=4	=4	=4	=4	=4	=4	=4	=4
4C/	-um,	4c\	-um,	4g\	-um,	4ee\	-um,
4r	.	4r	.	4r	.	4r	.
4r	.	4r	.	4r	.	4r	.
=5	=5	=5	=5	=5	=5	=5	=5
4BB/	cre-	4d\	cre-	4g\	cre-	4ff\	cre-
4C/	-do	4c\	-do	4g\	-do	4ee\	-do
4r	.	4r	.	4r	.	4r	.
!	!	!LO:LB:g=original	!	!	!	!	!
=6	=6	=6	=6	=6	=6	=6	=6
4GG/	cre-	4B\	cre-	4f\	cre-	4dd\	cre-
4C/	-do,	4G/	-do,	4e\	-do	4cc\	-do,
4r	.	4r	.	4r	.	4r	.
!LO:LB:g=original	!	!	!	!LO:LB:g=original	!	!LO:LB:g=original	!
=7	=7	=7	=7	=7	=7	=7	=7
4C/	Pa-	4G/	Pa-	4e\	Pa-	4b-\	Pa-
8C/	-trem	8G/	-trem	8e\	-trem	8b-\	-trem
8C/	om-	8G/	om-	8e\	om-	8b-\	om-
8C/	-ni-	8G/	-ni-	8e\	-ni-	8b-\	-ni-
8C/	-po-	8G/	-po-	8e\	-po-	8b-\	-po-
=8	=8	=8	=8	=8	=8	=8	=8
4C#X/	-ten-	4G/	-ten-	4e\	-ten-	4a\	-ten-
4C#/	-tem	4G/	-tem	4e\	-tem	4a\	-tem
4C#/	fac-	4G/	fac-	4e\	fac-	4a\	fac-
=9	=9	=9	=9	=9	=9	=9	=9
2D/	-to-	4F/	-to-	2f\	-to-	4a\	-to-
.	.	4A\	.	.	.	4dd\	.
4Cn/	-rem	4d\	-rem	4a-X\	-rem	4ff\	-rem
=10	=10	=10	=10	=10	=10	=10	=10
4BB/	ce-	4d\	ce-	4g\	ce-	4ff\	ce-
4C/	-li	4c\	-li	4g\	-li	4ee\	-li
4F\	et	4c\	et	4an\	et	4dd\	et
=11	=11	=11	=11	=11	=11	=11	=11
4G\	ter-	4B\	ter-	4g\	ter-	8.dd\L	ter-
.	.	.	.	.	.	16ee\Jk	.
4G\	-re	4B\	-re	4g\	-re	4dd\	-re
8B\	et	4r	.	4r	.	4r	.
8A\	in	.	.	.	.	.	.
!	!	!LO:LB:g=original	!	!	!	!	!
=12	=12	=12	=12	=12	=12	=12	=12
2G#X\	Je-	4.d\	et	4.b\	et	4.ee\	et
.	.	8d\	in	8b\	in	8ee\	in
4A\	-sum	8d\	Je-	8b\	Je-	8ff\	Je-
.	.	8d\	-sum	8b\	-sum	8ff\	-sum
!LO:LB:g=original	!	!	!	!	!	!LO:PB:g=original	!
=13	=13	=13	=13	=13	=13	=13	=13
4G#X\	Chri-	4d\	Chri-	4b\	Chri-	4ee\	Chri-
4G#\	-stum	4d\	-stum	4b\	-stum	4ee\	-stum
4r	.	4r	.	4r	.	4r	.
!	!	!	!	!LO:PB:g=original	!	!	!
=14	=14	=14	=14	=14	=14	=14	=14
2Gn\	fi-	2c#X\	Fi-	2b-X\	Fi-	2ee\	Fi-
8G\	-li-	8d\	-li-	8b-\	-li-	8dd\	-li-
8G\	-um	8e\	-um	8b-\	-um	8cc#X\	-um
=15	=15	=15	=15	=15	=15	=15	=15
4.F\	De-	4.d\	De-	4.a\	De-	4.dd\	De-
8E\	.	8c#X\	.	8g\	.	8ee\	.
4D\	-i	4d\	-i	4f\	-i	4ff\	-i
=16	=16	=16	=16	=16	=16	=16	=16
8E\	u-	8cn\	u-	4r	.	8ee\	u-
8E\	-ni-	8A\	-ni-	.	.	8cc\	-ni-
4E\	-ge-	4c\	-ge-	8e\	u-	4a\	-ge-
.	.	.	.	8e\	-ni-	.	.
.	.	.	.	.	.	8qcc/	.
4E\	-ni-	4d\	-ni-	8g#X\	-ge-	4b\	-ni-
.	.	.	.	8g#\	-ni-	.	.
=17	=17	=17	=17	=17	=17	=17	=17
4AA/	-tum	4c\	-tum	4a,\	-tum	4a\	-tum.
4r	.	8c\	et	8a\	et	4r	.
.	.	8d\	ex	8b\	ex	.	.
4r	.	8e\	Pa-	8cc\	Pa-	4r	.
.	.	8c\	-tre	8a\	-tre	.	.
!	!	!LO:LB:g=original	!	!	!	!	!
=18	=18	=18	=18	=18	=18	=18	=18
!	!	!	!	!	!	!LO:TX:a:t=4.	!
!	!	!	!	!	!	!LO:N:vis=00	!
4.D\	et	4A\	na-	4f#X\	na-	0.r	.
.	.	4A\	-tum	4f#\	-tum	.	.
8E\	ex	.	.	.	.	.	.
8D/	Pa-	8A\	an-	8f#\	an-	.	.
8C/	-tre	8A\	-te	8f#\	-te	.	.
!LO:LB:g=original	!	!	!	!LO:LB:g=original	!	!	!
=19	=19	=19	=19	=19	=19	=19	=19
4BB/	na-	8.B\	om-	8.g\	om-	.	.
.	.	16c\	-ni-	16a\	-ni-	.	.
4GG/	-tum	4d\	-a,	4b\	-a,	.	.
8G\	an-	8B\	an-	8g\	an-	.	.
8Fn\	-te	8B\	-te	8g\	-te	.	.
=20	=20	=20	=20	=20	=20	=20	=20
8.E\	om-	8.c\	om-	8.a\	om-	.	.
16D\	-ni-	16d\	-ni-	16b\	-ni-	.	.
4C/	-a	4e\	-a	4cc\	-a	.	.
4r	.	4r	.	4r	.	.	.
=21	=21	=21	=21	=21	=21	=21	=21
2D\	fac-	4B\	se-	8g\L	se-	.	.
.	.	.	.	8g#X\J	.	.	.
.	.	8c\	.	8a\	.	.	.
.	.	4e\	.	4cc\	.	.	.
4D\	-ta	.	.	.	.	.	.
.	.	16d\LL	-cu-	16b\LL	-cu-	.	.
.	.	16c\JJ	.	16a\JJ	.	.	.
=22	=22	=22	=22	=22	=22	=22	=22
4GG/	sunt	4B\	-la	4gn\	-la.	4r	.
!	!	!LO:LB:g=original	!	!	!	!	!
4r	.	4B\	De-	4g\	De-	4dd\	De-
4r	.	8A\	-um	8fn\	-um	8dd\	-um
.	.	8A\	de	8f\	de	8dd\	de
!	!	!	!	!	!	!LO:LB:g=original	!
=23	=23	=23	=23	=23	=23	=23	=23
!LO:TX:a:t=3.	!	!	!	!	!	!	!
!LO:N:vis=0	!	!	!	!	!	!	!
1.r	.	4G#X/	De-	4e\	De-	4dd\	De-
.	.	8G#/	-o,	8e\	-o,	8b\	-o,
.	.	8G#/	lu-	8e\	lu-	8b\	lu-
!	!	!	!	!LO:LB:g=original	!	!	!
.	.	8A\	-men	8f#\	-men	8ee\	-men
.	.	8B\	de	8g#X\	de	8dd\	de
=24	=24	=24	=24	=24	=24	=24	=24
.	.	8.c\	lu-	8a\	lu-	8.cc\	lu-
.	.	.	.	8a\	-mi-	.	.
.	.	16d\	-mi-	.	.	16b\	-mi-
.	.	4c\	-ne	4a\	-ne	4a\	-ne,
.	.	8Gn/	De-	8e-X\	De-	8cc\	De-
.	.	8G/	-um	8e-\	-um	8cc\	-um
=25	=25	=25	=25	=25	=25	=25	=25
2.r	.	4F#X/	ve-	4d\	ve-	4cc\	ve-
.	.	8F#/	-rum	8d\	-rum	8a\	-rum
.	.	8F#/	de	8d\	de	8a\	de
.	.	8G/	De-	8e-X\	De-	8b\	De-
.	.	8G/	-o	8e-\	-o	8cc\	-o
!	!	!LO:PB:g=original	!	!	!	!	!
=26	=26	=26	=26	=26	=26	=26	=26
4r	.	4F#X/	ve-	4d\	ve-	8.cc\L	ve-
.	.	.	.	.	.	16b\Jk	.
8r	.	8F#/	-rum	8d\	-ro,	8a\	-ro
8C/	de	8A/	de	8f#X\	de	8dd\	de
8C/	De-	8A/	De-	8f#\	De-	8dd\	De-
8C/	-o	8A/	-o	8f#\	-o	8dd\	-o
!LO:LB:g=original	!	!	!	!	!	!	!
=27	=27	=27	=27	=27	=27	=27	=27
4BB/	ve-	4G/	ve-	4g\	ve-	4dd\	ve-
4BB/	-ro	4d\	-ro.	4g\	-ro,	4gg\	-ro,
4r	.	4r	.	4r	.	4r	.
!	!	!	!	!	!	!LO:LB:g=original	!
=28	=28	=28	=28	=28	=28	=28	=28
8.BB/	ge-	8.d\	ge-	8g#X\	ge-	8.ff\	ge-
.	.	.	.	8g#\	-ni-	.	.
16BB/	-ni-	16d\	-ni-	.	.	16ff\	-ni-
!	!	!	!	!LO:LB:g=original	!	!	!
4BB/	-tum	4d\	-tum	4g#\	-tum	4ff\	-tum
4BB/	non	4d\	non	4g#\	non	4ff\	non
=29	=29	=29	=29	=29	=29	=29	=29
4BB/	fac-	4d\	fac-	4g#X\	fac-	4ee\	fac-
4BB/	-tum	4d\	-tum,	4g#\	-tum	4ee\	-tum
8BB/	con-	8d\	con-	8g#\	con-	8ee\	con-
8BB/	-sub-	8d\	-sub-	8g#\	-sub-	8ee\	-sub-
=30	=30	=30	=30	=30	=30	=30	=30
4.AA/	-stan-	4.c\	-stan-	4.a\	-stan-	4.ee\	-stan-
!	!	!	!LO:SIC:s=-ti-	!	!	!	!
8AA/	-ti-	8c\	-li-	8a\	-ti-	8ee\	-ti-
8AA/	-a-	8c\	-a-	8a\	-a-	8ee-X\	-a-
8AA/	-lem	8c\	-lem	8a\	-lem	8ee-\	-lem
=31	=31	=31	=31	=31	=31	=31	=31
4FF#X/	pa-	4c\	Pa-	4a\	Pa-	4dd\	Pa-
4FF#/	-tri	4c\	-tri	4a\	-tri	4dd\	-tri
4r	.	4r	.	4r	.	4r	.
!LO:LB:g=original	!	!LO:LB:g=original	!	!	!	!	!
=32	=32	=32	=32	=32	=32	=32	=32
4GG/	per	4B\	per	2g\	per	4dd\	per
4C/	.	4c\	.	.	.	4ee\	.
4AA/	quem	4d\	quem	4cc\	quem	4ff#X\	quem
=33	=33	=33	=33	=33	=33	=33	=33
2GG/	om-	2d\	om-	2b\	om-	2gg\	om-
8AA/	-ni-	8d\	-ni-	8cc\	-ni-	8ff#X\	-ni-
8BB/	-a	8d\	-a	8dd\	-a	8ffn\	-a
!	!	!	!	!	!	!LO:LB:g=original	!
=34	=34	=34	=34	=34	=34	=34	=34
8.C/	fac-	8.c\	fac-	8.g\	fac-	8ee\	fac-
.	.	.	.	.	.	8ee\	-ta
!	!	!	!	!	!LO:SIC:s=-ta	!	!
16C/	-ta	16c\	-ta	16g\	-to	.	.
4C/	sunt	4c\	sunt,	4g\	sunt	4ee\	sunt
4r	.	4r	.	4r	.	4r	.
!	!	!	!	!LO:LB:g=origina	!	!	!
=35	=35	=35	=35	=35	=35	=35	=35
2D\	fac-	4B\	fac-	4g\	fa-	2dd\	fa-
.	.	4c\	.	4a\	.	.	.
4D\	-ta	4A\	-ta	4f#X\	-cta	4dd\	-cta
=36	=36	=36	=36	=36	=36	=36	=36
4G\	sunt.	4G/	sunt,	4g\	sunt.	4g\	sunt.
4r	.	4r	.	4r	.	4r	.
4r	.	4r	.	4r	.	4r	.
=37||	=37||	=37||	=37||	=37||	=37||	=37||	=37||
*k[b-e-a-d-]	*	*k[b-e-a-d-]	*	*k[b-e-a-d-]	*	*k[b-e-a-d-]	*
*M3/4	*	*M3/4	*	*M3/4	*	*M3/4	*
*A-:	*	*A-:	*	*A-:	*	*A-:	*
!LO:TX:a:t=P:problem:znaki w źródle: E-, A-, BB-, D-	!	!	!	!	!	!LO:TX:a:t=P:problem:znaki w źródle: b-, ee-, a-, dd-	!
4AA-/	Et	4A-\	Et	4e-\	Et	4cc\	Et
4A-\	in-	4A-\	in-	4e-\	in-	4cc\	in-
4A-\	-car-	4A-\	-car-	4e-\	-car-	4cc\	-car-
!LO:LB:g=original	!	!LO:LB:g=original	!	!	!	!	!
=38	=38	=38	=38	=38	=38	=38	=38
8.A-\	-na-	8.A-\	-na-	8.f\	-na-	8.ee-\	-na-
16A-\	-tus	16A-\	-tus	16f\	-tus	16dd-X\	-tus
4A-\	est	4A-\	est	4f\	est	4dd-\	est
4AA-/	de	4A-\	de	4e-\	de	4cc\	de
=39	=39	=39	=39	=39	=39	=39	=39
2AA-/	spi-	2A-\	spi-	2dn\	Spi-	2b-\	Spi-
8A-\	-ri-	8G/	-ri-	8d\	-ri-	8ee-\	-ri-
8A-\	-tu	8G/	-tu	8d\	-tu	8ee-\	-tu
!	!	!	!	!	!	!LO:LB:g=original	!
=40	=40	=40	=40	=40	=40	=40	=40
4A-\	san-	4A-\	san-	4c\	san-	8ee-\L	san-
.	.	.	.	.	.	8cc\J	.
4AA-/	-cto	4A-\	-cto.	4c\	-cto,	4a-X\	-cto,
8A-\	ex	4r	.	8c\	ex	4r	.
8A-\	Ma-	.	.	8c\	Ma-	.	.
!	!	!	!	!LO:LB:g=origina	!	!	!
=41	=41	=41	=41	=41	=41	=41	=41
!	!	!	!	!	!	!LO:TX:a:t=1.	!
2D-X/	-ri-	4r	.	2f\	-ri-	2.r	.
.	.	8F/	ex	.	.	.	.
.	.	8F/	Ma-	.	.	.	.
4C/	-a	8G/	-ri-	4e-X\	-a	.	.
.	.	8An/	-a	.	.	.	.
=42	=42	=42	=42	=42	=42	=42	=42
8.BB-/	vir-	8.B-\	vir-	8.d-X\	Vir-	4r	.
16C/	-gi-	16c\	-gi-	16e-\	-gi-	.	.
!LO:N:vis=4.	!	!	!	!	!	!	!
4D-\	-ne	4d-\	-ne	4f\	-ne	4r	.
4r	.	4r	.	4r	.	4ff\	et
!LO:PB:g=original	!	!LO:LB:g=original	!	!	!	!	!
=43	=43	=43	=43	=43	=43	=43	=43
8r	.	8r	.	8r	.	8ee-X\L	Ho-
8G\	et	8B-\	et	8e-X\	et	8dd-X\J	.
4G\	ho-	4B-\	Ho-	4e-\	Ho-	4dd-\	-mo
4G\	-mo	4B-\	-mo	4e-\	-mo	8r	.
.	.	.	.	.	.	8dd-\	et
=44	=44	=44	=44	=44	=44	=44	=44
8r	.	8r	.	8r	.	8dd-\L	Ho-
8A-\	et	8A-\	et	8e-\	et	8cc\J	.
4A-\	ho-	4A-\	Ho-	4e-\	Ho-	4cc\	-mo,
4AA-/	-mo	4A-\	-mo	4e-\	-mo	4r	.
=45	=45	=45	=45	=45	=45	=45	=45
8D-X\	Ho-	2A-\	fa-	8f\	Ho-	8.b-\	Ho-
8Dn\	-mo	.	.	8f\	-mo	.	.
.	.	.	.	.	.	16b-\	-mo
4E-\	fac-	.	.	4e-X\	fa-	4.b-\	fac-
4E-\	-tus	4G/	-ctus	4b-\	-ctus	.	.
.	.	.	.	.	.	8ee-\	-tus
=46	=46	=46	=46	=46	=46	=46	=46
2.F\	est.	2.A-\	est	2.b-\	est,	2.ddn\	est,
!	!	!	!	!	!	!LO:LB:g=original	!
=47	=47	=47	=47	=47	=47	=47	=47
!LO:TX:a:t=1.	!	!	!	!	!	!	!
2.r	.	4A-/	Ho-	4g\	Ho-	4dd-X\	Ho-
.	.	4G/	-mo	4a-\	-mo	4cc\	-mo,
.	.	4r	.	4r	.	4r	.
!	!	!	!	!LO:LB:g=origina	!	!	!
=48	=48	=48	=48	=48	=48	=48	=48
8D-X\	Ho-	8.A-\	Ho-	8.a-\	Ho-	8.ff\	Ho-
8D-\	-mo	.	.	.	.	.	.
.	.	16d-\	-mo	16a-\	-mo	16ff\	-mo
4E-\	fac-	4c\	fac-	4a-\	fac-	4ee-\	fac-
4E-\	-tus	4d-\	-tus	4g\	-tus	4ee-\	-tus
!LO:LB:g=original	!	!	!	!	!	!	!
=49	=49	=49	=49	=49	=49	=49	=49
2.AA-;>/	est,	2.c;>\	est,	2.a-X;>\	est.	2.ee-;>\	est.
!	!	!LO:LB:g=original	!LO:LB:g=original	!	!	!	!
=50||	=50||	=50||	=50||	=50||	=50||	=50||	=50||
8.F\	Cru-	8c\	cru-	8.a-X\	Cru-	4.ff\	Cru-
.	.	8c\	-ci-	.	.	.	.
16F\	-ci-	.	.	16a-\	-ci-	.	.
4F\	-fi-	4c\	-fi-	4a-\	-fi-	.	.
.	.	.	.	.	.	8ff\	-ci-
4F\	-xus	4c\	-xus	4a-\	-xus	8ff\	-fi-
.	.	.	.	.	.	8ff\	-xus
=51	=51	=51	=51	=51	=51	=51	=51
8.En\	e-	8.c\	e-	8b-\	e-	4.gg\	e-
.	.	.	.	8b-\	-ti-	.	.
16E\	-ti-	16c\	-ti-	.	.	.	.
4E\	-am	4c\	-am	4b-\	-am	.	.
.	.	.	.	.	.	8gg\	-ti-
4F\	pro	4c\	pro	4a-\	pro	8ff\	-am
.	.	.	.	.	.	8ff\	pro
=52	=52	=52	=52	=52	=52	=52	=52
4C/	no-	4c\	no-	4g\	no-	4een\	no-
4C/	-bis	4c\	-bis,	4g\	-bis	4ee\	-bis
4r	.	4r	.	4r	.	4r	.
!	!	!	!	!	!	!LO:LB:g=original	!
=53	=53	=53	=53	=53	=53	=53	=53
2C/	pas-	2c\	pas-	2g\	pas-	2ee-X\	pas-
4GG/	-sus	4B-X\	-sus	4d-\	-sus	4ddn\	-sus
=54	=54	=54	=54	=54	=54	=54	=54
2Dn\	pas-	2An\	pas-	2f#X\	pas-	2ddn\	pas-
4GG/	-sus	4B-\	-sus	4g\	-sus	4dd\	-sus
!	!	!	!	!LO:LB:g=origina	!	!	!
=55	=55	=55	=55	=55	=55	=55	=55
8C/	et	8.An\	et	8g\	et	8.ee-X\	et
8C/	se-	.	.	8g\	se-	.	.
.	.	16A\	se-	.	.	16ee-\	se-
4Dn/	-pul-	4A\	-pul-	4g\	-pul-	4ddn\	-pul-
4D/	-tus	4A\	-tus	4f#X\	-tus	4dd\	-tus
!LO:LB:g=original	!	!LO:LB:g=original	!	!	!	!	!
=56	=56	=56	=56	=56	=56	=56	=56
4GG/	est	4Bn\	est	4g\	est,	4ddn\	est
2G\	pas-	2d-\	pas-	2bn\	pas-	2ff\	pas-
=57	=57	=57	=57	=57	=57	=57	=57
!	!	!	!LO:SIC:s=-sus	!	!LO:SIC:s=-sus	!	!
4C/	-sus	4c\	-us	4g\	-us	4ee-X\	-sus,
!LO:TX:t=P:problem:mixed beam	!LO:SIC:s=pas-	!	!	!	!	!LO:N:vis=4.	!
8.c\L	pa-	4r	.	4r	.	4r	.
16C/Jk	.	.	.	.	.	.	.
4C/	-sus	4r	.	4r	.	4r	.
=58	=58	=58	=58	=58	=58	=58	=58
4Dn/	et	4Bn\	et	4g\	et	4ddn\	et
4r	.	4r	.	4r	.	4r	.
4D/	se-	4B\	se-	4g\	se-	4dd\	se-
=59	=59	=59	=59	=59	=59	=59	=59
4D-/	-pul-	4An\	-pul-	4g\	-pul-	4ddn\	-pul-
4r	.	4r	.	4r	.	4r	.
4D-/	-tus	4A\	-tus	4f#X\	-tus	4dd\	-tus
=60	=60	=60	=60	=60	=60	=60	=60
2.GG;>/	est,	2.Bn;>\	est,	2.g;>\	est,	2.ddn;>\	est.
.	.	.	.	.	.	.	.
!	!	!	!	!	!	!LO:LB:g=original	!
=61||	=61||	=61||	=61||	=61||	=61||	=61||	=61||
*k[]	*	*k[]	*	*k[]	*	*k[]	*
*C:	*	*C:	*	*C:	*	*C:	*
*M4/4	*	*M4/4	*	*M4/4	*	*M2/2	*
*met(C.)	*	*met(C.)	*	*met(C.)	*	*met(c|)	*
!LO:TX:a:t=P:problem:kasowniki w źródle: E, A, BB, D	!	!	!	!	!	!LO:TX:a:t=P:problem:w pozostałych głosach metrum "C" z kropką	!
!	!	!	!	!LO:TX:a:t=P:problem:kasowniki w źródle: ee, b, dd, a	!	!LO:TX:a:t=P:problem:kasowniki w źródle: ee, b, dd, a	!
2C/	Et	2c\	Et	2g\	Et	2ee\	Et
4C/	re-	4c\	re-	4g\	re-	4ee\	re-
4C/	-sur-	4c\	-sur-	4g\	-sur-	4ee\	-sur-
!	!	!	!	!LO:LB:g=original	!	!	!
=62	=62	=62	=62	=62	=62	=62	=62
1C	-re-	2B-X\	-re-	1g	-re-	1ee	-re-
.	.	2B-\	-xit	.	.	.	.
!	!	!LO:LB:g=original	!	!	!	!	!
=63	=63	=63	=63	=63	=63	=63	=63
1C	.	2A\	re-	2a\	.	2ff\	.
.	.	2Bn\	-sur-	2g\	.	2dd\	.
!LO:LB:g=original	!	!	!	!	!	!	!
=64	=64	=64	=64	=64	=64	=64	=64
2C/	-xit	4c\	-re-	4g\	.	4ee\	.
.	.	4G/	-xit	4e\	-xit,	4cc\	-xit
!	!LO:SIC:s=ter-	!	!	!	!	!	!
8.C/L	te-	4c\	ter-	4g\	ter-	4ee\	ter-
16D/Jk	.	.	.	.	.	.	.
8E\	-ti-	8c\	-ti-	8g\	-ti-	8ee\	-ti-
8F\	-a	8c\	-a	8g\	-a	8ee\	-a
=65	=65	=65	=65	=65	=65	=65	=65
4G\	di-	4B\	di-	4g\	di-	4dd\	di-
4GG/	-e,	4B\	-e	4g\	-e,	4dd\	-e
8G\L	ter-	4d\	ter-	4b\	ter-	4ff\	ter-
8A\J	.	.	.	.	.	.	.
!	!LO:SIC:s=-li-	!	!	!	!	!	!
8B\	-li-	8d\	-ti-	8b\	-ti-	8ff\	-ti-
8G\	-a	8d\	-a	8b\	-a	8ff\	-a
=66	=66	=66	=66	=66	=66	=66	=66
4c\	die,	4c\	di-	4cc\	di-	4ee\	di-
4C/	se-	4c\	-e	4g\	-e,	4ee\	-e
!	!	!	!	!	!	!LO:LB:g=original	!
2E\	.	2G/	se-	2r	.	4r	.
.	.	.	.	.	.	4gg\	se-
=67	=67	=67	=67	=67	=67	=67	=67
!	!	!	!	!LO:TX:a:t=1.	!	!	!
4F\	-cun-	4A\	-cun-	1r	.	2gg\	-cun-
4G\	.	4B\	.	.	.	.	.
4A\	-dum	4c\	-dum	.	.	4.gg\	-dum
4B\	scri-	4d\	scri-	.	.	.	.
.	.	.	.	.	.	8ff\	scri-
=68	=68	=68	=68	=68	=68	=68	=68
4c\	-ptu-	4.c\	-ptu-	2r	.	4.ee\	-ptu-
4C/	-ras	.	.	.	.	.	.
.	.	8G/	.	.	.	8dd\	.
!	!	!LO:LB:g=original	!	!	!	!	!
2r	.	4E/	-ras	4r	.	4cc\	-ras,
.	.	4G/	se-	4e\	se-	4gg\	se-
!	!	!	!	!LO:LB:g=original	!	!	!
=69	=69	=69	=69	=69	=69	=69	=69
!LO:TX:a:t=1.	!	!	!	!	!	!	!
1r	.	4A\	-cun-	4f\	-cun-	2gg\	-cun-
.	.	4B\	.	4g\	.	.	.
.	.	4c\	-dum	4a\	-dum	4gg\	-dum
.	.	4d\	scri-	4b\	scri-	4ff\	scri-
!LO:LB:g=original	!	!	!	!	!	!	!
=70	=70	=70	=70	=70	=70	=70	=70
2r	.	4c\	-ptu-	4cc\	-ptu-	4ee\	-ptu-
.	.	4E/	-ras,	4c\	-ras,	4cc\	-ras,
4C/	et	4c\	et	4g\	et	4ee\	et
4C/	as-	4c\	as-	4g\	as-	4ee\	as-
=71	=71	=71	=71	=71	=71	=71	=71
2BB/	-cen-	2d\	-cen-	2g\	-cen-	2gg\	-cen-
4BB-X/	-dit	4d\	-dit	4g\	-dit	4gg\	-dit
4BB-/	in	4d\	in	4g\	in	4gg\	in
!	!	!	!	!	!	!LO:LB:g=original	!
=72	=72	=72	=72	=72	=72	=72	=72
2AA/	ce-	2c#X\	ce-	2a\	ce-	2gg\	ce-
2D\	-lum	2d\	-lum	2a\	-lum	2ff#X\	-lum
=73	=73	=73	=73	=73	=73	=73	=73
2BB/	se-	2cn\	se-	2g\	se-	2ffn\	se-
4C/	-det	4c\	-det	4g\	-det	4ee\	-det
4C/	ad	4c\	ad	4g\	ad	4ee\	ad
=74	=74	=74	=74	=74	=74	=74	=74
4D\	dex-	4B\	dex-	4g\	dex-	8dd\L	dex-
.	.	.	.	.	.	8ee\J	.
8D\	-te-	8c\	-ter-	8a\	-te-	8ff#X\	-te-
!	!LO:SIC:s=-ram	!	!	!	!	!	!
8D\	-rom	8c\	-ram	8b\	-ram	8gg\	-ram
!	!	!LO:LB:g=original	!	!	!	!	!
2D\	Pa-	2c\	Pa-	2a\	Pa-	8ff#\L	Pa-
.	.	.	.	.	.	16gg\L	.
.	.	.	.	.	.	16ff#\JJ	.
.	.	.	.	.	.	8ee\L	.
.	.	.	.	.	.	8ff#\J	.
!	!	!	!	!LO:LB:g=original	!	!	!
=75	=75	=75	=75	=75	=75	=75	=75
*	*^	*	*	*	*	*	*
2GG/	-tris,	.	2B\	-tris,	2g\	-tris,	4gg\	-tris,
.	.	.	.	.	.	.	4r	.
4r	.	.	2r	.	4r	.	4r	.
!	!	!	!	!	!	!	!LO:TX:t=P:problem:nuta przekreślona	!
4C/	Con-	[[et]]	.	.	4e\	con-	4g\	con-
!LO:LB:g=original	!	!	!	!	!	!	!	!
=76	=76	=76	=76	=76	=76	=76	=76	=76
!	!	!	!LO:TX:a:t=3.	!	!	!	!	!
!	!	!	!LO:N:vis=0	!	!	!	!	!
4.C/	-fi-	.	0r	.	4.e\	-fi-	4.g\	-fi-
8C/	-te-	.	.	.	8e\	-te-	8g\	-te-
2C/	-or	[[rum]]	.	.	2e\	-or	2g\	-or
!	!	!	!	!	!	!	!LO:LB:g=original	!
=77	=77	=77	=77	=77	=77	=77	=77	=77
2C/	u-	[[ven-	.	.	2f\	u-	2a\	u-
4C/	-num	-tu-	.	.	4g\	-num	4b\	-num
4C/	Ba-	-rus	.	.	4a\	Bap-	4cc\	Bap-
=78	=78	=78	=78	=78	=78	=78	=78	=78
2C/	-ptis-	est]]	1r	.	2e\	-tis-	4.g\	-tis-
.	.	.	.	.	.	.	8a\	.
2C/	-ma	.	.	.	2e\	-ma	2g\	-ma,
*	*v	*v	*	*	*	*	*	*
=79	=79	=79	=79	=79	=79	=79	=79
4BB/	in	4d\	in	4g\	in	4ff\	in
4C/	re-	4c\	re-	4g\	re-	4ee\	re-
4F\	-mi-	4B\	-mi-	4g\	-mi-	4dd\	-mis-
4E\	-si-	4c\	-si-	4g\	-si-	4cc\	-si-
=80	=80	=80	=80	=80	=80	=80	=80
4BB/	-o-	4d\	-o-	4g\	-o-	4ff\	-o-
4C/	-nem	4c\	-nem	4g\	-nem	4ee\	-nem
!	!	!	!LO:SIC:s=pec-	!	!LO:SIC:s=pec-	!	!
4F\	pec-	4B\	pe-	4g\	pa-	4dd\	pec-
4E\	-ca-	4c\	-ca-	4g\	-ca-	4cc\	-ca-
=81	=81	=81	=81	=81	=81	=81	=81
4.E\	-to-	4.B-X\	-to-	4.g\	-to-	4.cc#X\	-to-
8F\	.	8A\	.	8fn\	.	8dd\	.
2F\	-rum,	2A\	-rum	2f\	-rum	2dd\	-rum
!	!	!	!	!LO:LB:g=original	!	!	!
=82	=82	=82	=82	=82	=82	=82	=82
!	!LO:SIC:s=pec-	!	!LO:SIC:s=pec-	!	!LO:SIC:s=pec-	!	!
2.F#X\	pe-	2.c\	pe-	2.a\	pe-	2.dd\	pec-
4F#\	-ca-	4c\	-ca-	4a\	-ca-	8ee\L	-ca-
.	.	.	.	.	.	8dd\J	.
!LO:LB:g=original	!	!	!	!	!	!LO:LB:g=original	!
=83	=83	=83	=83	=83	=83	=83	=83
4G\	-to-	4B\	-to-	4g\	-to-	4dd\	-to-
4G\	-rum	4B\	-rum	4g\	-rum	4g\	-rum
!	!	!LO:LB:g=original	!	!	!	!	!
4GG/	et	4B\	et	4g\	et	4dd\	et
4GG/	ex-	4c\	ex-	4g\	ex-	4ee\	ex-
=84	=84	=84	=84	=84	=84	=84	=84
4.GG/	-pec-	4.d\	-pe-	4.g\	-pec-	4.ffn\	-pec-
8G\	-to	8c#X\	-cto	8g\	-to	8ee\	-to
4G\	re-	4d\	re-	4g\	re-	4ff\	re-
4G\	-sur-	4cn\	-sur-	4g\	-sur-	4ee\	-sur-
=85	=85	=85	=85	=85	=85	=85	=85
4GG/	-rec-	4B\	-rec-	4g\	-rec-	4dd\	-rec-
4G\	-ti-	4A\	-ti-	4g\	-ti-	4cc\	-ti-
4G\	-o-	4G\	-o-	4g\	-o-	4b\	-o-
4G\	-nem	4A\	-nem	4g\	-nem	4cc\	-nem
=86	=86	=86	=86	=86	=86	=86	=86
4GG/	mor-	2.B\	mor-	2.g\	mor-	2.dd\	mor-
2G\	.	.	.	.	.	.	.
4F#X\	-tu-	4c\	-tu-	4f#X\	-tu-	4ee-X\	-tu-
=87	=87	=87	=87	=87	=87	=87	=87
4F#X\	-o-	4c\	-o-	4f#X\	-or-	4ee-X\	-o-
4G\	-rum	4B\	-rum	4g\	-um	4dd\	-rum
4GG/	mor-	4G/	mor-	4g\	mor-	4g\	mor-
4GG/	-tu-	4G/	-tu-	4g\	-tu-	4g\	-tu-
!	!	!	!	!LO:LB:g=original	!	!	!
=88	=88	=88	=88	=88	=88	=88	=88
2AA-X/	-o-	2A-X\	-o-	2a-X\	-o-	2a-X\	-o-
2GG/	.	2G/	.	2g\	.	2g\	.
!LO:LB:g=original	!	!	!	!	!	!	!
=89	=89	=89	=89	=89	=89	=89	=89
1FF#X	.	1F#X	.	1f#X	.	1f#X	.
=90	=90	=90	=90	=90	=90	=90	=90
4GG/	-rum	4G/	-rum	4g\	-rum,	4g\	-rum
4r	.	4r	.	4r	.	4r	.
!	!	!LO:LB:g=original	!	!	!	!LO:PB:g=original	!
4r	.	4r	.	4r	.	4r	.
!	!	!	!	!LO:TX:i:a:t=Volti Subitto	!	!	!
!	!	!	!	!LO:TX:a:t=P:problem:napis na pięciolinii za kreską	!	!	!
4G\	et	4G/	et	4g\	et	4g/	et
!	!	!	!	!LO:PB:g=original	!	!	!
=91	=91	=91	=91	=91	=91	=91	=91
2C/	vi-	2c\	vi-	2g\	vi-	2ee\	vi-
4C/	-tam	4c\	-tam	4g\	-tem	4ee\	-tam
4C/	ven-	4c\	ven-	4g\	ven-	4ee\	ven-
=92	=92	=92	=92	=92	=92	=92	=92
2C/	-tu-	2B-X\	-tu-	2g\	-tu-	2ee\	-tu-
2C/	-ri	2B-\	-ri	2g\	-ri	2ee\	-ri
=93	=93	=93	=93	=93	=93	=93	=93
2C/	se-	2A\	se-	2a\	se-	2ff\	se-
4C/	-cu-	4Bn\	-cu-	4g\	-cu-	4dd\	-cu-
4C/	-li	4B\	-li	4g\	-li	4dd\	-li
=94	=94	=94	=94	=94	=94	=94	=94
4C/	a-	4c\	a-	4g\	a-	4ee\	a-
4C/	-men	4G/	-men	4e\	-men	4cc\	-men
8.C/L	a-	2c\	a-	[>2g\	a-	2ee\	a-
16D/Jk	.	.	.	.	.	.	.
8.E\L	.	.	.	.	.	.	.
16F\Jk	.	.	.	.	.	.	.
=95	=95	=95	=95	=95	=95	=95	=95
4G\	.	4B\	.	4g\]	.	4dd\	.
4GG/	-men	4B\	-men	4g\	-men	4dd\	-men
!LO:LB:g=original	!	!	!	!	!	!	!
8.G\L	a-	2d\	a-	2b\	a-	2ff\	a-
16A\Jk	.	.	.	.	.	.	.
8.B\L	.	.	.	.	.	.	.
16G\Jk	.	.	.	.	.	.	.
=96	=96	=96	=96	=96	=96	=96	=96
4c\	-men	4c\	.	4cc\	.	4ee\	.
4C/	.	4c\	-men	4g\	-men	4ee\	-men
4r	.	2e\	a-	4r	.	2gg\	a-
4E\	a-	.	.	4f\	a-	.	.
!	!	!	!	!	!	!LO:LB:g=original	!
=97	=97	=97	=97	=97	=97	=97	=97
4F\	.	2.e\	.	4a\	.	2.gg\	.
4G\	.	.	.	4b\	.	.	.
!	!	!	!	!LO:LB:g=original	!	!	!
4A\	.	.	.	4cc\	.	.	.
4B\	-men	4d\	-men	4dd\	.	4ff\	-men
!	!	!LO:LB:g=original	!	!	!	!	!
=98	=98	=98	=98	=98	=98	=98	=98
4c\	a-	4.c\	a-	4cc\	-men	4.ee\	a-
4C/	-men	.	.	4r	.	.	.
.	.	8G/	.	.	.	8dd\	.
4r	.	4E/	.	4r	.	4cc\	.
4E\	a-	4e\	-men	4g\	a-	4gg\	-men
=99	=99	=99	=99	=99	=99	=99	=99
2AA/	.	2c#X\	a-	2a\	.	2gg\	a-
2D\	.	2d\	.	2a\	-men	2ff#X\	-men
=100	=100	=100	=100	=100	=100	=100	=100
2BB/	.	2d\	.	2g\	a-	2ffn\	a-
2C/	-men	2cn\	.	2g\	-men	2ee\	-men
!LO:LB:g=original	!	!	!	!	!	!	!
=101	=101	=101	=101	=101	=101	=101	=101
2F\	a-	2A/	.	2f\	a-	2dd\	a-
2G\	.	2F/	.	2d\	.	2b\	.
=102	=102	=102	=102	=102	=102	=102	=102
4C/	-men	4E/	-men	4e\	-men	4cc\	-men
4C/	a-	4r	.	4e\	a-	4r	.
4F\	.	2r	.	4a\	.	2r	.
4E\	-men	.	.	4g\	.	.	.
=103	=103	=103	=103	=103	=103	=103	=103
2D/	a-	2.B\	a-	1fn	.	2.gg\	a-
2GG/	.	.	.	.	.	.	.
.	.	4d\	.	.	.	4b\	.
=104	=104	=104	=104	=104	=104	=104	=104
4C/	-men	4c\	-men	4e\	-men	4cc\	-men
4C/	a-	4r	.	4e\	a-	4r	.
!	!	!	!	!LO:LB:g=original	!	!	!
4F\	.	2r	.	4a\	.	2r	.
4E\	-men	.	.	4g\	.	.	.
!	!	!	!	!	!	!LO:LB:g=original	!
=105	=105	=105	=105	=105	=105	=105	=105
2D\	a-	2.B\	a-	1fn	.	2.gg\	a-
2GG/	.	.	.	.	.	.	.
.	.	4d\	.	.	.	4b\	.
=106	=106	=106	=106	=106	=106	=106	=106
4C/	-men	4c\	-men	4e\	-men	4cc\	-men
4r	.	4r	.	4r	.	4r	.
4G\	a-	4B\	a-	4g\	a-	4dd\	a-
4r	.	4r	.	4r	.	4r	.
!LO:LB:g=original	!	!LO:LB:g=original	!	!	!	!	!
=107	=107	=107	=107	=107	=107	=107	=107
4C/	-men	4c\	-men	4g\	-men	4ee\	-men
4r	.	4r	.	4r	.	4r	.
4GG/	a-	4F/	a-	4d\	a-	4b\	a-
4r	.	4r	.	4r	.	4r	.
=108	=108	=108	=108	=108	=108	=108	=108
4C/	-men.	4E/	-men.	4e\	-men.	4cc\	-men.
4r	.	4r	.	4r	.	4r	.
2r	.	2r	.	2r	.	2r	.
==	==	==	==	==	==	==	==
*-	*-	*-	*-	*-	*-	*-	*-
!!!system-decoration: [(s1,s2,s3,s4)]
!!!RDF**kern: > = above
!!!RDF**kern: < = below
!!!EED: Mateusz Mrugas
!!!EST: 2021-01-18
!!!AIN: 1 alto 1 bass 1 soprn 1 tenor
!!!ENC: Mateusz Solarz
!!!END: 2021-01-15
